X: 10344
T: Don Side
R: strathspey
M: 4/4
K: Gmajor
E|G2 BG AGEA|G2 BG ABgB|G2 BG AGEb|gedB A2 GE|
G2 BG AGEA|G2 BA B2 Bg|edBG AGEb|gedB A2 G||
B|gdef gdBG|gdef gaba|gdef gdBd|egdB A2 GB|
gdef gdBG|gdef gaba|geba dgBd|egdB A2 G||

